X:1
T:Title
%%score { 1 | 2 }
L:1/8
M:3/4
K:D
V:1 treble nm="Grand Piano"
V:2 bass 
V:1
 z2 z[Q:1/4=100] D F>F | F3 E E>D | D3 F [FA]>[FA] | [FA]3 F F>E |[M:3/8] [CE]3 | [CE]F>G | %6
[M:3/4] A3 F [DG]>[DA] | [DB]3 [DB] [DA]>[DF] | [DF]3[K:bass] [F,D] [A,CF]>[G,CE] | %9
[M:3/8] [F,A,D]3 | [DFA][Fd]>[Fd] |[M:3/4] [Fd]3 [FA] [GB]>[GB] | [FA]3 [FA] [Ad]>[Ad] | %13
 [^Ge]3 [Bd] [Ac]>[GB] |[M:3/8] [Ac]3 | [GA][Fd]>[Fd] |[M:3/4] [Fd]3 [DF] [DG]>[DA] | %17
 [DB]3 [DB] [DA]>[DF] | [DF]3[K:bass] [F,D] [A,CF]>[G,CE] |[M:3/8] [F,A,D]3 |] %20
V:2
 z2 z [D,F,] [D,A,D]>[D,A,D] | [D,A,D]3 [D,G,A,] [D,G,A,]>[D,F,A,] | %2
 [D,F,A,]3 [D,A,D] [D,D]>[D,D] | [D,D]3 [D,A,D] [E,^G,D]>[E,G,D] |[M:3/8] [A,,A,]3 | %5
 [A,,A,][D,A,D]>[D,E,D] |[M:3/4] [D,F,D]3 [D,A,D] [B,,G,]>[A,,F,] | %7
 [G,,G,]3 [G,,G,] [A,,F,]>[A,,A,] | [A,,A,]3 A,, A,,>A,, |[M:3/8] D,3 | D,[D,A,]>[D,A,] | %11
[M:3/4] [D,A,]3 [D,D] [D,D]>[D,D] | [D,D]3 [D,D] [F,D]>[F,D] | [E,B,]3 [E,E] [E,E]>[E,E] | %14
[M:3/8] [A,E]3 | [A,C][D,D]>[D,D] |[M:3/4] [D,A,]3 [D,A,] [B,,G,]>[A,,F,] | %17
 [G,,G,]3 [G,,G,] [A,,F,]>[A,,A,] | [A,,A,]3 A,, A,,>A,, |[M:3/8] D,3 |] %20

